X: 122
T: Woods Hole Fisherman (reel)
N: 230300
C: BB
R: reel
Q: 1/8=380
M: 4/4
L: 1/8
K: Ador
"Am"EAcA "G"BcdB|"Am"caa^g "Am7"aba=g|"C"efge "G"dB (3BAB|"Am7"cABG AGED|
"Am"EAcA "G"BcdB|"Am"caa^g "Am7"aba=g|"C"ecgc "G7"Bdg=f|"C"ec"G"dB "Am"A4 :|
"C"c2 ec gcec|"Dm"=fedf "Am"ecAB|"C"c2 ec gcec|"Am"eaab a2 ag|
"C"e2 de ceBe|"Am"A2 GA "Dm"=FADA|"Am"EAcA "G7"Bdg=f|"C"ec"G"dB "Am"A4 :|
%%%%%%%%%%%%%%%%%%%%%%%%%%%%%%%%%%%%%%%%%%%
